src/assets/img/Home/icons/CaseItem/hos.svg

<svg width="30" height="30" viewBox="0 0 30 30" fill="none" xmlns="http://www.w3.org/2000/svg">
<g id="Icon">
<g id="Union">
<path d="M14.4801 2.96995C14.795 2.76002 15.2052 2.76002 15.5201 2.96995L26.7701 10.47C27.2009 10.7572 27.3174 11.3392 27.0301 11.77C26.7429 12.2008 26.1609 12.3173 25.7301 12.03L15.0001 4.87673L4.27013 12.03C3.83932 12.3173 3.25726 12.2008 2.97005 11.77C2.68285 11.3392 2.79926 10.7572 3.23007 10.47L14.4801 2.96995Z" fill="#CAFF33"/>
<path fill-rule="evenodd" clip-rule="evenodd" d="M25.3125 12.9156V25.3125H26.25C26.7678 25.3125 27.1875 25.7322 27.1875 26.25C27.1875 26.7678 26.7678 27.1875 26.25 27.1875H3.75C3.23223 27.1875 2.8125 26.7678 2.8125 26.25C2.8125 25.7322 3.23223 25.3125 3.75 25.3125H4.6875V12.9156C4.6875 12.454 5.0236 12.061 5.47968 11.9895C8.58222 11.5026 11.7619 11.25 15 11.25C18.2381 11.25 21.4178 11.5026 24.5203 11.9895C24.9764 12.061 25.3125 12.454 25.3125 12.9156ZM15.9375 15.9375C15.9375 15.4197 15.5178 15 15 15C14.4822 15 14.0625 15.4197 14.0625 15.9375V24.375C14.0625 24.8928 14.4822 25.3125 15 25.3125C15.5178 25.3125 15.9375 24.8928 15.9375 24.375V15.9375ZM19.6875 15C20.2053 15 20.625 15.4197 20.625 15.9375V24.375C20.625 24.8928 20.2053 25.3125 19.6875 25.3125C19.1697 25.3125 18.75 24.8928 18.75 24.375V15.9375C18.75 15.4197 19.1697 15 19.6875 15ZM11.25 15.9375C11.25 15.4197 10.8303 15 10.3125 15C9.79473 15 9.375 15.4197 9.375 15.9375V24.375C9.375 24.8928 9.79473 25.3125 10.3125 25.3125C10.8303 25.3125 11.25 24.8928 11.25 24.375V15.9375Z" fill="#CAFF33"/>
<path d="M15 9.84375C15.7767 9.84375 16.4062 9.21415 16.4062 8.4375C16.4062 7.66085 15.7767 7.03125 15 7.03125C14.2233 7.03125 13.5938 7.66085 13.5938 8.4375C13.5938 9.21415 14.2233 9.84375 15 9.84375Z" fill="#CAFF33"/>
</g>
</g>
</svg>

<svg xmlns="http://www.w3.org/2000/svg" width="30" height="30" fill="none"><g fill="#CAFF33"><path d="M14.48 2.97a.937.937 0 0 1 1.04 0l11.25 7.5a.937.937 0 1 1-1.04 1.56L15 4.877 4.27 12.03a.937.937 0 1 1-1.04-1.56l11.25-7.5Z"/><path fill-rule="evenodd" d="M25.313 12.916v12.396h.937a.937.937 0 1 1 0 1.875H3.75a.937.937 0 1 1 0-1.875h.938V12.916c0-.462.336-.855.792-.927A61.376 61.376 0 0 1 15 11.25c3.238 0 6.418.253 9.52.74a.937.937 0 0 1 .793.926Zm-9.375 3.021a.937.937 0 1 0-1.876 0v8.438a.937.937 0 1 0 1.876 0v-8.438Zm3.75-.937c.517 0 .937.42.937.938v8.437a.937.937 0 1 1-1.875 0v-8.438c0-.517.42-.937.938-.937Zm-8.438.938a.937.937 0 1 0-1.875 0v8.437a.937.937 0 1 0 1.875 0v-8.438Z" clip-rule="evenodd"/><path d="M15 9.844a1.406 1.406 0 1 0 0-2.813 1.406 1.406 0 0 0 0 2.813Z"/></g></svg>
